icons/machinery_fill.svg

<svg width="48" height="48" viewBox="0 0 48 48" fill="none" xmlns="http://www.w3.org/2000/svg">
<path d="M11.9877 8.5C11.9877 9.88071 10.8685 11 9.48774 11C8.10703 11 6.98774 9.88071 6.98774 8.5C6.98774 7.11929 8.10703 6 9.48774 6C10.8685 6 11.9877 7.11929 11.9877 8.5Z" fill="black"/>
<path d="M13.9877 8.50003C13.9877 9.51127 13.6542 10.4446 13.0911 11.196C15.7224 12.0482 18.361 13.1075 20.1013 14.9984C20.2005 15.1062 20.3703 15.1119 20.4749 15.0093C21.2977 14.2016 22.2195 13.4954 23.2196 12.9101C23.3547 12.831 23.3885 12.6491 23.2852 12.5316C20.9358 9.86027 17.5159 8.71131 13.9436 7.86743C13.9727 8.07412 13.9877 8.28532 13.9877 8.50003Z" fill="black"/>
<path d="M10.7195 12.8293C10.328 12.9405 9.91484 13 9.48774 13C8.59398 13 7.76108 12.7395 7.06086 12.2902L6.08498 23.4524L6.00253 25.7912C5.9291 27.8702 7.46159 29.6585 9.52737 29.9043L9.70798 29.9258C11.2969 30.1149 12.8456 29.3389 13.6453 27.9529L15.8414 24.1468C15.9513 23.9563 15.7795 23.727 15.5659 23.7789L13.7916 24.2099C13.767 24.2159 13.7416 24.2181 13.7163 24.2165L11.0501 24.0432L9.3201 23.8373C9.17996 23.8207 9.0814 23.6914 9.10244 23.5518L10.7195 12.8293Z" fill="black"/>
<path fill-rule="evenodd" clip-rule="evenodd" d="M31.1019 13C24.7331 13 19.4737 17.9754 19.1204 24.3344L18.8087 29.9445C18.7769 30.5177 19.2331 31 19.8072 31H41.4567C41.7492 31 41.9792 30.75 41.9549 30.4585L41.3647 23.3754C41.2999 22.598 40.65 22 39.8699 22H36.0436C36.0186 22 35.9975 21.9816 35.9941 21.9569L34.9896 14.7249C34.8523 13.7361 34.0069 13 33.0086 13H31.1019ZM31.5322 17.2155C31.5141 16.9533 31.2957 16.7484 31.0333 16.7617C26.7669 16.978 23.3393 20.1482 23.076 24.496L23.0409 25.0748C23.0206 25.4104 23.3306 25.67 23.6574 25.5911L29.4624 24.1888C29.8332 24.0638 30.225 23.9999 30.62 23.9999H31.7322C31.8771 23.9999 31.9916 23.8772 31.9816 23.7327L31.5322 17.2155Z" fill="black"/>
<path fill-rule="evenodd" clip-rule="evenodd" d="M17 37.5C17 35.0147 19.0147 33 21.5 33H37.5C39.9853 33 42 35.0147 42 37.5C42 39.9853 39.9853 42 37.5 42H21.5C19.0147 42 17 39.9853 17 37.5ZM25 37.5C25 38.3284 24.3284 39 23.5 39C22.6716 39 22 38.3284 22 37.5C22 36.6716 22.6716 36 23.5 36C24.3284 36 25 36.6716 25 37.5ZM29.5 39C30.3284 39 31 38.3284 31 37.5C31 36.6716 30.3284 36 29.5 36C28.6716 36 28 36.6716 28 37.5C28 38.3284 28.6716 39 29.5 39ZM37 37.5C37 38.3284 36.3284 39 35.5 39C34.6716 39 34 38.3284 34 37.5C34 36.6716 34.6716 36 35.5 36C36.3284 36 37 36.6716 37 37.5Z" fill="black"/>
</svg>

<svg
  xmlns="http://www.w3.org/2000/svg"
  width="24"
  height="24"
  viewBox="0 0 24 24"
  fill="none"
  stroke="currentColor"
  stroke-width="2"
  stroke-linecap="round"
  stroke-linejoin="round"
>
  <path d="M11.988 8.5a2.5 2.5 0 1 1-5 0 2.5 2.5 0 0 1 5 0" />
  <path d="M13.988 8.5a4.48 4.48 0 0 1-.897 2.696c2.631.852 5.27 1.912 7.01 3.802a.26.26 0 0 0 .374.011 14 14 0 0 1 2.745-2.099.25.25 0 0 0 .065-.378c-2.35-2.672-5.77-3.82-9.341-4.665q.044.31.044.633" />
  <path d="M10.72 12.83c-.392.11-.805.17-1.232.17-.894 0-1.727-.26-2.427-.71l-.976 11.162-.082 2.34a4 4 0 0 0 3.524 4.112l.181.022a4 4 0 0 0 3.937-1.973l2.196-3.806a.25.25 0 0 0-.275-.368l-1.774.43a.3.3 0 0 1-.076.008l-2.666-.174-1.73-.206a.25.25 0 0 1-.218-.285z" />
  <path
    fill-rule="evenodd"
    d="M31.102 13c-6.369 0-11.628 4.975-11.982 11.334l-.311 5.61A1 1 0 0 0 19.807 31h21.65a.5.5 0 0 0 .498-.541l-.59-7.084A1.5 1.5 0 0 0 39.87 22h-3.826a.05.05 0 0 1-.05-.043l-1.004-7.232A2 2 0 0 0 33.009 13zm.43 4.215a.48.48 0 0 0-.499-.453c-4.266.216-7.694 3.386-7.957 7.734l-.035.579a.5.5 0 0 0 .616.516l5.805-1.402c.371-.125.763-.19 1.158-.19h1.112a.25.25 0 0 0 .25-.266z"
    clip-rule="evenodd"
  />
  <path
    fill-rule="evenodd"
    d="M17 37.5a4.5 4.5 0 0 1 4.5-4.5h16a4.5 4.5 0 1 1 0 9h-16a4.5 4.5 0 0 1-4.5-4.5m8 0a1.5 1.5 0 1 1-3 0 1.5 1.5 0 0 1 3 0m4.5 1.5a1.5 1.5 0 1 0 0-3 1.5 1.5 0 0 0 0 3m7.5-1.5a1.5 1.5 0 1 1-3 0 1.5 1.5 0 0 1 3 0"
    clip-rule="evenodd"
  />
</svg>
